flaticon/gastronomy/spatula-1.svg

<svg xmlns="http://www.w3.org/2000/svg" width="32" height="32" viewBox="0 0 24 24">
    <path d="M5.945312 20.601562C5.785156 20.765625 5.785156 21.027344 5.945312 21.1875 6.027344 21.269531 6.132812 21.308594 6.242188 21.308594 6.347656 21.308594 6.453125 21.269531 6.535156 21.1875L11.5 16.222656C11.664062 16.058594 11.664062 15.796875 11.5 15.632812 11.339844 15.472656 11.074219 15.472656 10.914062 15.632812zM4.480469 19.71875C4.558594 19.800781 4.667969 19.84375 4.773438 19.84375 4.878906 19.84375 4.984375 19.800781 5.066406 19.71875L10.863281 13.921875C11.023438 13.761719 11.023438 13.5 10.863281 13.335938 10.699219 13.175781 10.4375 13.175781 10.277344 13.335938L4.480469 19.132812C4.316406 19.296875 4.316406 19.558594 4.480469 19.71875zM8.566406 12.699219C8.402344 12.535156 8.140625 12.535156 7.976562 12.699219L3.011719 17.664062C2.847656 17.828125 2.847656 18.089844 3.011719 18.253906 3.09375 18.332031 3.199219 18.375 3.304688 18.375 3.410156 18.375 3.515625 18.332031 3.597656 18.253906L8.566406 13.285156C8.726562 13.125 8.726562 12.859375 8.566406 12.699219zM21.292969 1.414062C21.128906 1.25 20.867188 1.25 20.703125 1.414062L19.734375 2.378906C19.574219 2.542969 19.574219 2.804688 19.734375 2.96875 19.816406 3.046875 19.921875 3.089844 20.027344 3.089844 20.136719 3.089844 20.242188 3.046875 20.324219 2.96875L21.289062 2C21.453125 1.839844 21.453125 1.574219 21.292969 1.414062zM19.28125 4.011719C19.441406 3.847656 19.441406 3.585938 19.28125 3.425781 19.117188 3.261719 18.855469 3.261719 18.691406 3.425781L15.945312 6.171875C15.785156 6.332031 15.785156 6.59375 15.945312 6.757812 16.027344 6.839844 16.132812 6.878906 16.238281 6.878906 16.347656 6.878906 16.453125 6.839844 16.535156 6.757812zM17.363281 7.105469L16.378906 8.085938C16.214844 8.25 16.214844 8.511719 16.378906 8.675781 16.460938 8.753906 16.566406 8.796875 16.671875 8.796875 16.777344 8.796875 16.886719 8.753906 16.964844 8.675781L17.949219 7.691406C18.109375 7.53125 18.109375 7.265625 17.949219 7.105469 17.785156 6.941406 17.523438 6.941406 17.363281 7.105469zM20.535156 3.929688L18.535156 5.929688C18.371094 6.09375 18.371094 6.355469 18.535156 6.515625 18.617188 6.597656 18.722656 6.636719 18.828125 6.636719 18.933594 6.636719 19.042969 6.597656 19.121094 6.515625L21.125 4.515625C21.285156 4.351562 21.285156 4.089844 21.125 3.929688 20.960938 3.765625 20.699219 3.765625 20.535156 3.929688zM21.964844 2.5L21.472656 2.992188C21.308594 3.15625 21.308594 3.417969 21.472656 3.582031 21.550781 3.660156 21.660156 3.703125 21.765625 3.703125 21.871094 3.703125 21.976562 3.660156 22.058594 3.582031L22.550781 3.085938C22.714844 2.925781 22.714844 2.664062 22.550781 2.5 22.390625 2.335938 22.125 2.339844 21.964844 2.5zM21.964844 2.5"/>
    <path d="M 23.878906 2.746094 C 23.875 2.65625 23.816406 1.816406 22.949219 0.945312 C 22.855469 0.847656 22.023438 0 21.128906 0 C 21.121094 0 21.113281 0 21.105469 0 L 21.023438 0 L 20.949219 0.0351562 C 20.769531 0.113281 16.472656 2.007812 13.246094 7.71875 L 13.1875 7.820312 L 13.191406 7.9375 C 13.195312 8.023438 13.253906 8.761719 13.96875 9.566406 L 11.757812 11.78125 L 10.289062 10.3125 C 9.96875 9.992188 9.46875 9.921875 9.074219 10.144531 L 8.4375 10.496094 C 8.132812 10.667969 7.804688 10.824219 7.460938 10.988281 C 6.636719 11.382812 5.78125 11.792969 5.125 12.449219 L 0.636719 16.9375 C -0.0546875 17.628906 -0.0546875 18.757812 0.636719 19.453125 L 4.664062 23.480469 C 5 23.816406 5.445312 24 5.921875 24 C 6.398438 24 6.84375 23.816406 7.179688 23.480469 L 11.667969 18.992188 C 12.328125 18.332031 12.742188 17.472656 13.144531 16.644531 C 13.308594 16.308594 13.460938 15.988281 13.628906 15.6875 L 13.980469 15.050781 C 14.203125 14.65625 14.132812 14.15625 13.8125 13.835938 L 12.34375 12.367188 L 14.578125 10.136719 C 14.921875 10.394531 15.417969 10.683594 15.941406 10.683594 C 15.949219 10.683594 15.957031 10.683594 15.964844 10.683594 L 16.046875 10.683594 L 16.121094 10.652344 C 16.300781 10.574219 20.597656 8.675781 23.824219 2.96875 L 23.882812 2.867188 Z M 13.257812 14.648438 L 12.902344 15.28125 C 12.722656 15.605469 12.558594 15.949219 12.394531 16.28125 C 12.023438 17.050781 11.640625 17.84375 11.082031 18.402344 L 6.59375 22.890625 C 6.234375 23.25 5.609375 23.25 5.253906 22.890625 L 1.222656 18.863281 C 0.855469 18.496094 0.855469 17.894531 1.222656 17.523438 L 5.710938 13.035156 C 6.265625 12.480469 7.058594 12.101562 7.820312 11.734375 C 8.160156 11.574219 8.511719 11.40625 8.839844 11.222656 L 9.476562 10.867188 C 9.507812 10.851562 9.539062 10.84375 9.570312 10.84375 C 9.617188 10.84375 9.664062 10.863281 9.703125 10.898438 L 13.226562 14.421875 C 13.285156 14.480469 13.296875 14.574219 13.257812 14.648438 Z M 15.871094 9.851562 C 15.429688 9.808594 14.902344 9.347656 14.726562 9.167969 L 14.625 9.0625 C 14.550781 8.984375 14.492188 8.90625 14.433594 8.828125 C 14.460938 8.8125 14.492188 8.796875 14.519531 8.773438 L 15.601562 7.691406 C 15.761719 7.53125 15.761719 7.265625 15.601562 7.105469 C 15.4375 6.941406 15.175781 6.941406 15.011719 7.105469 L 14.050781 8.066406 C 14.046875 8.042969 14.042969 8.023438 14.039062 8.003906 C 16.875 3.058594 20.605469 1.117188 21.199219 0.832031 C 21.640625 0.878906 22.167969 1.335938 22.347656 1.519531 L 22.445312 1.621094 C 22.867188 2.082031 22.996094 2.492188 23.03125 2.679688 C 20.195312 7.625 16.464844 9.566406 15.871094 9.851562 Z M 15.871094 9.851562"/>
</svg>

<svg xmlns="http://www.w3.org/2000/svg" width="32" height="32" viewBox="0 0 24 24">
    <path d="M5.945 20.602a.413.413 0 1 0 .297.707.41.41 0 0 0 .293-.122l4.965-4.964a.415.415 0 1 0-.586-.59zm0 0M4.48 19.719a.408.408 0 0 0 .586 0l5.797-5.797a.417.417 0 0 0 0-.586.417.417 0 0 0-.586 0L4.48 19.133a.41.41 0 0 0 0 .586zm0 0M8.566 12.7a.415.415 0 0 0-.59 0l-4.964 4.964a.415.415 0 1 0 .586.59l4.968-4.969a.417.417 0 0 0 0-.586zm0 0M21.293 1.414a.415.415 0 0 0-.59 0l-.969.965a.422.422 0 0 0 0 .59.428.428 0 0 0 .293.12.43.43 0 0 0 .297-.12L21.29 2a.414.414 0 0 0 .004-.586zm0 0M19.281 4.012a.415.415 0 1 0-.59-.586l-2.746 2.746a.417.417 0 0 0 0 .586.41.41 0 0 0 .293.12c.11 0 .215-.038.297-.12zm0 0M17.363 7.105l-.984.98a.415.415 0 1 0 .586.59l.984-.984a.417.417 0 0 0 0-.586.41.41 0 0 0-.586 0zm0 0M20.535 3.93l-2 2a.41.41 0 0 0 0 .586.41.41 0 0 0 .293.12c.106 0 .215-.038.293-.12l2.004-2a.415.415 0 1 0-.59-.586zm0 0M21.965 2.5l-.492.492a.415.415 0 1 0 .586.59l.492-.496a.41.41 0 0 0 0-.586.414.414 0 0 0-.586 0zm0 0"/>
    <path d="M23.879 2.746c-.004-.09-.063-.93-.93-1.8C22.855.847 22.023 0 21.13 0H21.023l-.074.035c-.18.078-4.476 1.973-7.703 7.684l-.059.101.004.117c.004.086.063.825.778 1.63l-2.211 2.214-1.469-1.469c-.32-.32-.82-.39-1.215-.167l-.636.351c-.305.172-.633.328-.977.492-.824.395-1.68.805-2.336 1.461L.637 16.938a1.785 1.785 0 0 0 0 2.515l4.027 4.027c.336.336.781.52 1.258.52.476 0 .922-.184 1.258-.52l4.488-4.488c.66-.66 1.074-1.52 1.477-2.347.164-.336.316-.657.484-.957l.351-.637a1.018 1.018 0 0 0-.168-1.215l-1.468-1.469 2.234-2.23c.344.258.84.547 1.363.547H16.047l.074-.032c.18-.078 4.477-1.976 7.703-7.683l.059-.102zM13.258 14.648l-.356.633c-.18.324-.343.668-.507 1-.372.77-.754 1.563-1.313 2.121l-4.488 4.489a.967.967 0 0 1-1.34 0l-4.031-4.028a.953.953 0 0 1 0-1.34l4.488-4.488c.555-.555 1.348-.933 2.11-1.3.34-.16.69-.329 1.019-.512l.637-.356a.208.208 0 0 1 .093-.023.2.2 0 0 1 .133.054l3.524 3.524c.058.058.07.152.03.226zm2.613-4.796c-.441-.043-.969-.504-1.144-.684l-.102-.105c-.074-.079-.133-.157-.191-.235.027-.015.058-.031.086-.055l1.082-1.082a.415.415 0 1 0-.59-.586l-.961.961a1.867 1.867 0 0 0-.012-.062c2.836-4.945 6.566-6.887 7.16-7.172.442.047.969.504 1.149.688l.097.101c.422.461.551.871.586 1.059-2.836 4.945-6.566 6.886-7.16 7.172zm0 0"/>
</svg>
